X:18019
T:Reel of the Burl
T:Reel with the Birl/Beryle
R:Reel
C:Trad.
O:Ireland
Z:Paul Hardy's Session Tunebook 2015 (see www.paulhardy.net). Creative Commons cc by-nc-sa licenced.
M:4/4
L:1/8
Q:3/8=100
K:Edor
"Em"E2 BE dEBE|E2 BE AGFD|E2 BE dE B2|"D"d2 dB AGFD:|
"Em"B3 d e3 g|"Bm"fd d2 d2 ef|"Em"g4 g3 e|"D"fa a2 afed|
"Bm"f3 b bafe|"D"faab afed|"Bm"B3 A BAFA|"D"d3 B AGFD|]

